static/img/kroki/042bb3dba047735dd55acd8e23ca7ee4.svg

<?xml version="1.0" encoding="us-ascii" standalone="no"?><svg xmlns="http://www.w3.org/2000/svg" xmlns:xlink="http://www.w3.org/1999/xlink" contentStyleType="text/css" height="374px" preserveAspectRatio="none" style="width:358px;height:374px;" version="1.1" viewBox="0 0 358 374" width="358px" zoomAndPan="magnify"><defs/><g><!--class azure_compute_disk_encryption_set--><g id="elem_azure_compute_disk_encryption_set"><rect codeLine="23" fill="#3D176E" height="39.7891" id="azure_compute_disk_encryption_set" rx="2.5" ry="2.5" style="stroke:#000D19;stroke-width:0.5;" width="344" x="7" y="328.58"/><ellipse cx="22" cy="348.4745" fill="#ADD1B2" rx="11" ry="11" style="stroke:#181818;stroke-width:1.0;"/><path d="M24.9688,354.1152 Q24.3906,354.412 23.75,354.5527 Q23.1094,354.7089 22.4063,354.7089 Q19.9063,354.7089 18.5781,353.0683 Q17.2656,351.412 17.2656,348.287 Q17.2656,345.162 18.5781,343.5058 Q19.9063,341.8495 22.4063,341.8495 Q23.1094,341.8495 23.75,342.0058 Q24.4063,342.162 24.9688,342.4589 L24.9688,345.1777 Q24.3438,344.5995 23.75,344.3339 Q23.1563,344.0527 22.5313,344.0527 Q21.1875,344.0527 20.5,345.1308 Q19.8125,346.1933 19.8125,348.287 Q19.8125,350.3808 20.5,351.4589 Q21.1875,352.5214 22.5313,352.5214 Q23.1563,352.5214 23.75,352.2558 Q24.3438,351.9745 24.9688,351.3964 L24.9688,354.1152 Z " fill="#000000"/><text fill="#D9B8FF" font-family="Helvetica" font-size="17" lengthAdjust="spacing" textLength="302" x="41" y="354.3598">azure_compute_disk_encryption_set</text></g><!--class microsoft_resource--><g id="elem_microsoft_resource"><rect codeLine="26" fill="#3D176E" height="39.7891" id="microsoft_resource" rx="2.5" ry="2.5" style="stroke:#000D19;stroke-width:0.5;" width="200" x="79" y="167.79"/><ellipse cx="94" cy="187.6845" fill="#ADD1B2" rx="11" ry="11" style="stroke:#181818;stroke-width:1.0;"/><path d="M96.9688,193.3252 Q96.3906,193.622 95.75,193.7627 Q95.1094,193.9189 94.4063,193.9189 Q91.9063,193.9189 90.5781,192.2783 Q89.2656,190.622 89.2656,187.497 Q89.2656,184.372 90.5781,182.7158 Q91.9063,181.0595 94.4063,181.0595 Q95.1094,181.0595 95.75,181.2158 Q96.4063,181.372 96.9688,181.6689 L96.9688,184.3877 Q96.3438,183.8095 95.75,183.5439 Q95.1563,183.2627 94.5313,183.2627 Q93.1875,183.2627 92.5,184.3408 Q91.8125,185.4033 91.8125,187.497 Q91.8125,189.5908 92.5,190.6689 Q93.1875,191.7314 94.5313,191.7314 Q95.1563,191.7314 95.75,191.4658 Q96.3438,191.1845 96.9688,190.6064 L96.9688,193.3252 Z " fill="#000000"/><text fill="#D9B8FF" font-family="Helvetica" font-size="17" lengthAdjust="spacing" textLength="158" x="113" y="193.5698">microsoft_resource</text></g><!--class resource--><g id="elem_resource"><rect codeLine="29" fill="#3D176E" height="39.7891" id="resource" rx="2.5" ry="2.5" style="stroke:#000D19;stroke-width:0.5;" width="113" x="122.5" y="7"/><ellipse cx="137.5" cy="26.8945" fill="#ADD1B2" rx="11" ry="11" style="stroke:#181818;stroke-width:1.0;"/><path d="M140.4688,32.5352 Q139.8906,32.832 139.25,32.9727 Q138.6094,33.1289 137.9063,33.1289 Q135.4063,33.1289 134.0781,31.4883 Q132.7656,29.832 132.7656,26.707 Q132.7656,23.582 134.0781,21.9258 Q135.4063,20.2695 137.9063,20.2695 Q138.6094,20.2695 139.25,20.4258 Q139.9063,20.582 140.4688,20.8789 L140.4688,23.5977 Q139.8438,23.0195 139.25,22.7539 Q138.6563,22.4727 138.0313,22.4727 Q136.6875,22.4727 136,23.5508 Q135.3125,24.6133 135.3125,26.707 Q135.3125,28.8008 136,29.8789 Q136.6875,30.9414 138.0313,30.9414 Q138.6563,30.9414 139.25,30.6758 Q139.8438,30.3945 140.4688,29.8164 L140.4688,32.5352 Z " fill="#000000"/><text fill="#D9B8FF" font-family="Helvetica" font-size="17" lengthAdjust="spacing" textLength="71" x="156.5" y="32.7798">resource</text></g><!--reverse link microsoft_resource to azure_compute_disk_encryption_set--><g id="link_microsoft_resource_azure_compute_disk_encryption_set"><path codeLine="32" d="M179,225.84 C179,256.36 179,297.69 179,328.25 " fill="none" id="microsoft_resource-backto-azure_compute_disk_encryption_set" style="stroke:#FFAF37;stroke-width:2.0;"/><polygon fill="none" points="179,207.84,173,225.84,185,225.84,179,207.84" style="stroke:#FFAF37;stroke-width:2.0;"/></g><!--reverse link resource to microsoft_resource--><g id="link_resource_microsoft_resource"><path codeLine="33" d="M179,65.05 C179,95.57 179,136.9 179,167.46 " fill="none" id="resource-backto-microsoft_resource" style="stroke:#FFAF37;stroke-width:2.0;"/><polygon fill="none" points="179,47.05,173,65.05,185,65.05,179,47.05" style="stroke:#FFAF37;stroke-width:2.0;"/></g><!--SRC=[XP51Jm8n48Nl-okQS2O1YGA95oGnUY56l6zAEuLcjvtDpAm4rFyk29go2tATztNUUzELjw0WLB9H0S82Y3CkVAmqwQ0cHBYUOecaEivfDnWsnKUCSXMOwG3g2Sft46zqatXRULD4O5OtYVIWJR4ahACzh1VIaNSIH4ceQQcP9oBa5xL04iQE5oFdccHpQMTW-yCxQ6585kY8z7ezsnytaQjM__R-8-P-2wgV7cs60gsOBOiVwj-KUo89sIhwgr_C-AAjzN6fRfFPwo4JHQ2J-NobBQxtjDCbfpOiG82ogM3QQWNZaNN3i_3p9JWp-zCflQq9SeEXsdrxRZqNEKH3cqeynfn1r4UMVHtXu0qXevESWB4c0wbwEZl3tdzskzthZbdZGNjJzWq0]--></g></svg>

<svg xmlns="http://www.w3.org/2000/svg" width="358" height="374" viewBox="0 0 358 374"><rect width="344" height="39.789" x="7" y="328.58" fill="#3D176E" rx="2.5" ry="2.5" style="stroke:#000d19;stroke-width:.5"/><circle cx="22" cy="348.474" r="11" fill="#ADD1B2" style="stroke:#181818;stroke-width:1"/><path d="M24.969 354.115q-.578.297-1.219.438-.64.156-1.344.156-2.5 0-3.828-1.64-1.312-1.657-1.312-4.782t1.312-4.781q1.328-1.656 3.828-1.656.703 0 1.344.156.656.156 1.219.453v2.719q-.625-.579-1.219-.844-.594-.281-1.219-.281-1.343 0-2.031 1.078-.687 1.062-.687 3.156t.687 3.172q.688 1.062 2.031 1.062.625 0 1.219-.265.594-.281 1.219-.86z"/><text x="41" y="354.36" fill="#D9B8FF" font-family="Helvetica" font-size="17" textLength="302">azure_compute_disk_encryption_set</text><rect width="200" height="39.789" x="79" y="167.79" fill="#3D176E" rx="2.5" ry="2.5" style="stroke:#000d19;stroke-width:.5"/><circle cx="94" cy="187.685" r="11" fill="#ADD1B2" style="stroke:#181818;stroke-width:1"/><path d="M96.969 193.325q-.578.297-1.219.438-.64.156-1.344.156-2.5 0-3.828-1.64-1.312-1.657-1.312-4.782t1.312-4.781q1.328-1.656 3.828-1.656.703 0 1.344.156.656.156 1.219.453v2.719q-.625-.578-1.219-.844-.594-.281-1.219-.281-1.344 0-2.031 1.078-.687 1.062-.687 3.156t.687 3.172q.688 1.062 2.031 1.062.625 0 1.219-.265.594-.281 1.219-.86z"/><text x="113" y="193.57" fill="#D9B8FF" font-family="Helvetica" font-size="17" textLength="158">microsoft_resource</text><rect width="113" height="39.789" x="122.5" y="7" fill="#3D176E" rx="2.5" ry="2.5" style="stroke:#000d19;stroke-width:.5"/><circle cx="137.5" cy="26.895" r="11" fill="#ADD1B2" style="stroke:#181818;stroke-width:1"/><path d="M140.469 32.535q-.578.297-1.219.438-.64.156-1.344.156-2.5 0-3.828-1.64-1.312-1.657-1.312-4.782t1.312-4.781q1.328-1.656 3.828-1.656.703 0 1.344.156.656.156 1.219.453v2.719q-.625-.578-1.219-.844-.594-.281-1.219-.281-1.344 0-2.031 1.078-.687 1.062-.687 3.156t.687 3.172q.688 1.062 2.031 1.062.625 0 1.219-.265.594-.281 1.219-.86z"/><text x="156.5" y="32.78" fill="#D9B8FF" font-family="Helvetica" font-size="17" textLength="71">resource</text><path fill="none" d="M179 225.84v102.41m0-120.41-6 18h12zm0-142.79v102.41m0-120.41-6 18h12z" style="stroke:#ffaf37;stroke-width:2"/></svg>
